X:1
T:Bognor Regis, 86.88.86
T:Bognor Regis, 86.88.86
T:Adapted by Richard W Adams, 2015
T:Adaptation © 2015 Richard W. Adams (reproduce freely for Christian worship or devotions) Courtesy of the Cyber Hymnal™
C:Adapted by Richard W Adams, 2015
Z:Adaptation © 2015 Richard W. Adams (reproduce freely for Christian worship or devotions)
Z:Courtesy of the Cyber Hymnal™
%%score 1 ( 2 3 )
L:1/8
Q:1/4=110
M:4/4
K:Ab
V:1 treble 
V:2 bass 
V:3 bass 
V:1
 [CF]2 [Cc]2 [Fc]2 [FB]2 | [EB]2 [CA]2 [FA]2 [=EG]2 | [CF]2 [CG]2 [CA]2 [DB]2 | [CA]2 [CG]6 | %4
 [CG]2 [CA]2 [DA]2 [DB]2 | [EB]2 [Ec]2 [EB]2 [CA]2 | [FA]2 [Fd]2 [Fc]2 [FB]2 | %7
 [EB]2 [CA]2 [B,G]2 [A,F]2 | [Fc]2 [=Ec]2 [Fc]2 [FB]2 | [EG]2 [EA]2 [FB]2 [=Ec]2- | %10
 [Ec]4 [CA]2 [CG]2 | [CF]2 [DF]2 [C=E]2 [CF]2- | [CF]6 z2 |] %13
V:2
 [F,A,]2 [=E,G,]2 [F,A,]2 [=D,F,]2 | [E,G,]2 [F,A,]2 [F,,C]2 [C,C]2 | %2
 [F,A,]2 [=E,G,]2 F,2 [B,,F,]2 | [F,,F,]2 [C,=E,]6 | [=E,G,]2 F,2 [D,F,]2 [B,,F,]2 | %5
 [E,G,]2 [A,,A,]2 [E,G,]2 [A,,A,]2 | [F,C]2 [B,,B,]2 [F,A,]2 [D,A,]2 | %7
 [E,G,]2 [A,,A,]2 [G,,G,]2 [F,,F,]2 | [F,A,]2 [C,G,]2 [F,A,]2 [D,B,]2 | %9
 [E,B,]2 [A,,C]2 [D,F,]2 [C,G,]2- | [C,G,]4 F,2 [=E,G,]2 | [F,A,]2 [B,,G,]2 [C,G,]2 [F,A,]2- | %12
 [F,A,]6 z2 |] %13
V:3
 x8 | x8 | x4 F,2 x2 | x8 | x2 F,2 x4 | x8 | x8 | x8 | x8 | x8 | x4 F,2 x2 | x8 | x8 |] %13

